X:1
T:Involutions
S:Mark Fitzsimons
R:Jig
O:New Zealand
M:6/8
I:speed 450
C:Mark Fitzsimons
H:
Copyright: Mark Fitzsimons
A:Auckland
K:Am
A|:BcG ABc|dGc BFG|Aee Add|Acc ^GAB|cGA Bcd|GcB FGA|^Gee dcB| A^GB
A2:|*
|:a2e ^cBA|a2e B^cA|a2e ^cBA|^GAB AB^c|
d2A ^FED|d2A E^FD|E^FG ABG|cBA GBd|e2B d^cB|^cAA A3:|
W:Copyright Mark Fitzsimons
% markfitzsimons@xtra.co.nz
